modules/themify-icons/icons/dropbox.svg

<?xml version="1.0" encoding="utf-8"?>
<!-- Generated by IcoMoon.io -->
<!DOCTYPE svg PUBLIC "-//W3C//DTD SVG 1.1//EN" "http://www.w3.org/Graphics/SVG/1.1/DTD/svg11.dtd">
<svg version="1.1" xmlns="http://www.w3.org/2000/svg" xmlns:xlink="http://www.w3.org/1999/xlink" width="17" height="17" viewBox="0 0 17 17">
<g>
</g>
	<path d="M16.853 4.371l-5.296-3.454-3.057 2.538-3.046-2.538-5.307 3.454 3.1 2.476-3.099 2.482 3.444 2.243v1.533l4.917 2.939 4.926-2.938v-1.548l3.417-2.23-3.098-2.481 3.099-2.476zM11.627 2.157l3.52 2.296-2.232 1.782-3.56-2.19 2.272-1.888zM12 6.847l-3.5 2.159-3.5-2.159 3.5-2.154 3.5 2.154zM1.853 4.453l3.527-2.296 2.265 1.887-3.561 2.191-2.231-1.782zM1.852 9.245l2.232-1.789 3.562 2.198-2.266 1.89-3.528-2.299zM12.435 12.538l-3.925 2.343-3.917-2.342v-0.315l0.862 0.561 3.047-2.54 3.056 2.54 0.878-0.573v0.326zM15.148 9.246l-3.521 2.298-2.273-1.89 3.561-2.198 2.233 1.79z" fill="#000000" />
</svg>

<svg xmlns="http://www.w3.org/2000/svg" width="17" height="17"><path d="M16.853 4.371L11.557.917 8.5 3.455 5.454.917.147 4.371l3.1 2.476L.148 9.329l3.444 2.243v1.533l4.917 2.939 4.926-2.938v-1.548l3.417-2.23-3.098-2.481 3.099-2.476zm-5.226-2.214l3.52 2.296-2.232 1.782-3.56-2.19 2.272-1.888zM12 6.847L8.5 9.006 5 6.847l3.5-2.154L12 6.847zM1.853 4.453L5.38 2.157l2.265 1.887-3.561 2.191-2.231-1.782zm-.001 4.792l2.232-1.789 3.562 2.198-2.266 1.89-3.528-2.299zm10.583 3.293L8.51 14.881l-3.917-2.342v-.315l.862.561 3.047-2.54 3.056 2.54.878-.573v.326zm2.713-3.292l-3.521 2.298-2.273-1.89 3.561-2.198 2.233 1.79z"/></svg>
